tools/download-figma-icons/icons/outlined-medium/toy.svg

<svg width="24" height="24" viewBox="0 0 24 24" fill="none" xmlns="http://www.w3.org/2000/svg">
<path fill-rule="evenodd" clip-rule="evenodd" d="M11.9984 22.4993C15.014 22.4993 19.0722 21.5423 20.6824 19.7693C20.9172 19.4446 21.1534 18.5918 20.8587 18.2574C20.8497 18.2461 20.8399 18.2349 20.8302 18.2229C20.5812 17.9266 20.0524 17.5531 19.0175 17.9476C18.8247 18.0226 18.6087 18.0114 18.422 17.9214C18.2352 17.8306 18.095 17.6656 18.0342 17.4676C17.9697 17.2591 16.4503 12.3385 15.899 10.0285C15.7393 9.36103 15.7468 7.79131 15.7498 7.48382C15.752 7.25658 15.8563 7.04358 16.0348 6.90333C16.2125 6.76159 16.4458 6.70984 16.6655 6.75934L19.6377 7.43132L20.0734 6.99558L18.092 3.3604C18.032 3.25091 18.0005 3.12716 18.0005 3.00191V1.53419C16.6955 1.65344 15.668 2.09668 14.9413 2.85491C13.8801 3.96264 13.3948 5.76411 13.4983 8.21056C13.5073 8.4138 13.4316 8.6133 13.2906 8.76104C13.1488 8.90879 12.9531 8.99204 12.7491 8.99204H9.7484H9.7409C8.85817 8.99204 8.48543 8.96804 7.77669 8.3958C7.70544 8.3388 7.6192 8.25556 7.5187 8.15731L7.51088 8.14969C7.22363 7.86989 6.835 7.49132 6.37197 7.49132C5.41949 7.49132 5.26124 7.91206 5.24849 8.91629L5.24699 10.1883C6.21972 9.57553 7.3177 9.59878 7.79244 9.80352C8.15169 9.95727 8.33243 10.36 8.20868 10.7305L5.95798 17.4834C5.89423 17.6761 5.75548 17.8351 5.57249 17.9229C5.38949 18.0106 5.178 18.0211 4.9875 17.9506C4.44451 17.7526 3.71853 17.7226 3.30228 18.0886C3.3005 18.0907 3.29872 18.0927 3.29702 18.0946C3.29514 18.0967 3.29336 18.0986 3.29178 18.1006C3.27383 18.1208 3.25663 18.1388 3.23942 18.1567L3.23929 18.1569L3.15154 18.2506C2.82004 18.6053 3.09004 19.5518 3.30378 19.8278C3.79748 20.4771 4.72143 21.0204 4.77855 21.054C4.78009 21.0549 4.781 21.0554 4.78125 21.0555C6.19198 21.8948 9.22266 22.4993 11.9984 22.4993ZM21.9987 17.2801C21.9994 17.2811 22.0002 17.282 22.0009 17.2831C22.9316 18.3654 22.3677 20.0438 21.8554 20.7068C21.8474 20.7177 21.839 20.7276 21.8304 20.7378C21.8278 20.7409 21.8251 20.7441 21.8224 20.7473C19.6902 23.133 14.7801 24 11.9984 24C9.49191 24 5.92799 23.484 4.02528 22.3515C3.98778 22.3305 2.80505 21.6495 2.11281 20.7428C1.57583 20.0476 1.09209 18.2889 2.03482 17.2486C2.63855 16.5062 3.66753 16.1792 4.75576 16.3479L6.44998 11.2623C6.07198 11.3853 5.63024 11.6673 5.3205 12.298C5.15175 12.6392 4.77601 12.8162 4.40102 12.7292C4.01553 12.6392 3.74628 12.3025 3.74628 11.9102L3.74778 8.89831C3.77178 6.96935 4.65451 5.99062 6.37198 5.99062C7.45009 5.99062 8.17644 6.70163 8.56747 7.08441L8.56868 7.08559C8.58197 7.09855 8.59474 7.11113 8.60701 7.12323C8.64946 7.16506 8.6861 7.20116 8.71868 7.22734C8.72686 7.23396 8.73482 7.24041 8.74259 7.24671C9.04475 7.49156 9.0499 7.49572 9.71016 7.49134H11.9841C11.9999 5.00514 12.6291 3.09868 13.8576 1.81695C15.0133 0.610976 16.6595 0.000488271 18.7505 0.000488271C19.166 0.000488271 19.5012 0.335731 19.5012 0.750473V2.81068L21.6604 6.76985C21.8194 7.06159 21.7669 7.42384 21.5322 7.65933L20.4064 8.78506C20.2249 8.96656 19.9617 9.0423 19.7105 8.98606L17.2603 8.43257C17.2745 8.95156 17.306 9.46005 17.3585 9.67904C17.7777 11.4355 18.806 14.8577 19.2545 16.3277C20.8257 16.0457 21.7182 16.9359 21.9964 17.2771C21.9972 17.2783 21.9979 17.2792 21.9987 17.2801ZM12.0543 17.9973C12.4968 18.0048 13.717 17.9988 14.1348 17.5758C14.1828 17.5278 14.2278 17.4663 14.2435 17.3538L13.2745 14.4956C13.2198 14.3523 13.0773 14.2451 12.919 14.2451H11.0328C10.8738 14.2451 10.7313 14.3523 10.6683 14.5188L9.7511 17.3523C9.7646 17.4678 9.8081 17.5285 9.85385 17.575C10.0428 17.7678 10.5678 17.9973 11.9981 17.9973H12.0543ZM12.919 12.7444C13.708 12.7444 14.4018 13.2326 14.6867 13.9901L15.7105 17.005C15.7352 17.08 15.7487 17.158 15.7495 17.2368C15.7562 17.7798 15.5665 18.262 15.202 18.631C14.3703 19.4717 12.844 19.498 12.1241 19.498H12.0528H11.9981C10.9001 19.498 9.54111 19.399 8.78362 18.6265C8.42363 18.2598 8.23838 17.7783 8.24738 17.233C8.24888 17.1588 8.26163 17.086 8.28413 17.0155L9.25236 14.0239C9.54936 13.2326 10.2446 12.7444 11.0328 12.7444H12.919Z" fill="black"/>
</svg>

<svg width="24" height="24" viewBox="0 0 24 24" fill="none" xmlns="http://www.w3.org/2000/svg"><path fill-rule="evenodd" clip-rule="evenodd" d="M11.998 22.5c3.016 0 7.074-.958 8.684-2.73.235-.325.471-1.178.177-1.513a.324.324 0 0 1-.029-.034c-.249-.296-.778-.67-1.813-.275a.748.748 0 0 1-.983-.48c-.064-.209-1.584-5.13-2.135-7.44-.16-.667-.152-2.237-.15-2.544a.75.75 0 0 1 .916-.724l2.973.671.435-.435-1.981-3.636a.747.747 0 0 1-.091-.358V1.534c-1.306.12-2.333.563-3.06 1.32-1.06 1.109-1.546 2.91-1.443 5.357a.751.751 0 0 1-.749.781H9.741c-.883 0-1.256-.024-1.964-.596a3.901 3.901 0 0 1-.258-.239L7.51 8.15c-.287-.28-.676-.659-1.139-.659-.953 0-1.11.421-1.124 1.425l-.001 1.272c.973-.612 2.07-.59 2.545-.384a.75.75 0 0 1 .417.926l-2.251 6.753a.747.747 0 0 1-.97.468c-.543-.198-1.27-.228-1.686.138a.296.296 0 0 1-.005.006l-.005.006-.053.056-.087.094c-.332.354-.062 1.3.152 1.577.493.65 1.417 1.192 1.475 1.226l.002.002c1.411.839 4.442 1.443 7.217 1.443Zm10-5.22.003.003c.93 1.082.367 2.76-.146 3.424l-.025.03a4.257 4.257 0 0 1-.008.01C19.69 23.133 14.78 24 11.998 24c-2.506 0-6.07-.516-7.973-1.648-.037-.021-1.22-.703-1.912-1.61-.537-.694-1.02-2.453-.078-3.493.604-.743 1.633-1.07 2.72-.901l1.695-5.086c-.378.123-.82.405-1.13 1.036a.812.812 0 0 1-.919.431.84.84 0 0 1-.655-.819l.002-3.012c.024-1.929.907-2.907 2.624-2.907 1.078 0 1.804.71 2.195 1.093l.002.002.038.037a1.636 1.636 0 0 0 .136.124c.302.245.307.249.967.244h2.274C12 5.005 12.63 3.1 13.858 1.817 15.013.611 16.66 0 18.75 0a.75.75 0 0 1 .751.75v2.06l2.16 3.96a.751.751 0 0 1-.129.89l-1.126 1.125a.752.752 0 0 1-.695.201l-2.45-.553c.014.519.045 1.027.098 1.246.419 1.756 1.447 5.179 1.895 6.649 1.572-.282 2.464.608 2.742.95l.003.002Zm-9.944.717c.443.008 1.663.002 2.08-.421a.36.36 0 0 0 .11-.222l-.97-2.858a.39.39 0 0 0-.355-.25h-1.886c-.16 0-.302.106-.365.273l-.917 2.833a.348.348 0 0 0 .103.223c.189.193.714.422 2.144.422h.056Zm.865-5.253c.789 0 1.483.489 1.768 1.246l1.024 3.015a.766.766 0 0 1 .038.232 1.904 1.904 0 0 1-.547 1.394c-.832.84-2.358.867-3.078.867h-.126c-1.098 0-2.457-.099-3.214-.872-.36-.366-.546-.848-.537-1.393a.765.765 0 0 1 .037-.218l.968-2.991c.297-.791.993-1.28 1.78-1.28h1.887Z" fill="currentColor"/></svg>
